X: 10261
Q: "Moderately."
M: 6/8
L: 1/8
K: Eb
(G/F/) |\
(E>FG) (e>f)e | (d>c)B e2B | (ce)c (BG)E | F3 zz(G/F/) |\
E>FG e>fg | (fe)d e2B | (cec) BGE | E2z z2 |
(eg)e (fe)d | (ed)c B2A | (G>A)B (eB)G | F2z z2(G/F/) |\
E>FG e>fg | fed e2B | (ce)c (BG)E | E2z z2 |]


